docs/img/BGproblems.svg

<svg width="768" height="694" fill="none" xmlns="http://www.w3.org/2000/svg"><path d="M-45 374.75L50 322l95 52.75v105.078L50 533l-95-53.172V374.75zm97 161L147 483l95 52.75v105.078L147 694l-95-53.172V535.75zm-192-322L-45 161l95 52.75v105.078L-45 372l-95-53.172V213.75zm774 0L729 161l95 52.75v105.078L729 372l-95-53.172V213.75zm-97-161L632 0l95 52.75v105.078L632 211l-95-53.172V52.75zm-582 0L50 0l95 52.75v105.078L50 211l-95-53.172V52.75z" fill="#F9F9F9"/></svg>

<svg width="768" height="694" viewBox="0 0 768 694" fill="none" xmlns="http://www.w3.org/2000/svg">
<path d="M-45 374.75L50 322L145 374.75V479.828L50 533L-45 479.828V374.75Z" fill="#F9F9F9"/>
<path d="M52 535.75L147 483L242 535.75V640.828L147 694L52 640.828V535.75Z" fill="#F9F9F9"/>
<path d="M-140 213.75L-45 161L50 213.75V318.828L-45 372L-140 318.828V213.75Z" fill="#F9F9F9"/>
<path d="M634 213.75L729 161L824 213.75V318.828L729 372L634 318.828V213.75Z" fill="#F9F9F9"/>
<path d="M537 52.75L632 0L727 52.75V157.828L632 211L537 157.828V52.75Z" fill="#F9F9F9"/>
<path d="M-45 52.75L50 0L145 52.75V157.828L50 211L-45 157.828V52.75Z" fill="#F9F9F9"/>
</svg>
